!!!OTL: Denglongge
!!!ARE: Asia, China,ÿGuangdong Heifeng
!! II, 379
!!!SCT: C1971
!!!YEM: Copyright 1995, estate of Helmut Schaffrath.
**kern
*ICvox
*Ivox
!! Mixed meters:  2/4; 1/4
*M1/4
*k[f#]
*G:
{8dd
8g
8g
8a
=1
4b
16dd
16dd
16dd
16a
=2
16b
16a
16g
16a
4b}
=3
{8e
8b
16a
8b
16a
=4
8g
8g
16a
16b
16a
16e
=5
4g}
=6
*M2/4
{8a
8b
16a
8b
16a
=7
8g
8g
16a
16b
16g
16a
=8
4b
4r}
=9
{8e
8b
16a
8b
16a
=10
8g
8g
16a
16b
16a
16e
=11
*M1/4
4g}
=12
{8g
8e
=13
*M2/4
16d
16e
8g
16e
16d
16B
16A
=14
8d
16e
16g
4d}
==
!!!AGN: Xiaodiao
!!!AMT: irregular
!!!AIN: vox
!!!EED: Helmut Schaffrath
!!!EEV: 1.0
*-
